assets/img/social-icons/zen.svg

<svg width="40" height="41" viewBox="0 0 40 41" fill="none" xmlns="http://www.w3.org/2000/svg">
<path d="M0 20.0625C0 9.01681 8.95431 0.0625 20 0.0625C31.0457 0.0625 40 9.01681 40 20.0625C40 31.1082 31.0457 40.0625 20 40.0625C8.95431 40.0625 0 31.1082 0 20.0625Z" fill="#C9CED5" fill-opacity="0.16"/>
<path d="M21.9286 21.9911C20.3571 23.6125 20.2429 25.6339 20.1071 30.0625C24.2357 30.0625 27.0857 30.0482 28.5571 28.6196C29.9857 27.1482 30 24.1625 30 20.1696C25.5714 20.3125 23.55 20.4196 21.9286 21.9911ZM10 20.1696C10 24.1625 10.0143 27.1482 11.4429 28.6196C12.9143 30.0482 15.7643 30.0625 19.8929 30.0625C19.75 25.6339 19.6429 23.6125 18.0714 21.9911C16.45 20.4196 14.4286 20.3054 10 20.1696ZM19.8929 10.0625C15.7714 10.0625 12.9143 10.0768 11.4429 11.5054C10.0143 12.9768 10 15.9625 10 19.9554C14.4286 19.8125 16.45 19.7054 18.0714 18.1339C19.6429 16.5125 19.7571 14.4911 19.8929 10.0625ZM21.9286 18.1339C20.3571 16.5125 20.2429 14.4911 20.1071 10.0625C24.2357 10.0625 27.0857 10.0768 28.5571 11.5054C29.9857 12.9768 30 15.9625 30 19.9554C25.5714 19.8125 23.55 19.7054 21.9286 18.1339Z" fill="white" fill-opacity="0.87"/>
<path d="M30 20.1696V19.9554C25.5714 19.8125 23.55 19.7054 21.9286 18.1339C20.3571 16.5125 20.2429 14.4911 20.1071 10.0625H19.8929C19.75 14.4911 19.6429 16.5125 18.0714 18.1339C16.45 19.7054 14.4286 19.8196 10 19.9554V20.1696C14.4286 20.3125 16.45 20.4196 18.0714 21.9911C19.6429 23.6125 19.7571 25.6339 19.8929 30.0625H20.1071C20.25 25.6339 20.3571 23.6125 21.9286 21.9911C23.55 20.4196 25.5714 20.3054 30 20.1696" fill="#C9CED5" fill-opacity="0.16"/>
</svg>

<svg width="40" height="41" fill="none" xmlns="http://www.w3.org/2000/svg"><path d="M0 20.063c0-11.046 8.954-20 20-20s20 8.954 20 20c0 11.045-8.954 20-20 20s-20-8.955-20-20Z" fill="#C9CED5" fill-opacity=".16"/><path d="M21.929 21.991c-1.572 1.622-1.686 3.643-1.822 8.072 4.129 0 6.979-.015 8.45-1.443C29.986 27.148 30 24.163 30 20.17c-4.429.142-6.45.25-8.071 1.821ZM10 20.17c0 3.992.014 6.978 1.443 8.45 1.471 1.428 4.321 1.442 8.45 1.442-.143-4.428-.25-6.45-1.822-8.07C16.45 20.42 14.43 20.304 10 20.17Zm9.893-10.108c-4.122 0-6.979.015-8.45 1.443C10.014 12.977 10 15.962 10 19.955c4.429-.142 6.45-.25 8.071-1.821 1.572-1.622 1.686-3.643 1.822-8.072Zm2.036 8.072c-1.572-1.622-1.686-3.643-1.822-8.072 4.129 0 6.979.015 8.45 1.443C29.986 12.977 30 15.962 30 19.955c-4.429-.142-6.45-.25-8.071-1.821Z" fill="#fff" fill-opacity=".87"/><path d="M30 20.17v-.215c-4.429-.142-6.45-.25-8.071-1.821-1.572-1.622-1.686-3.643-1.822-8.072h-.214c-.143 4.43-.25 6.45-1.822 8.072C16.45 19.705 14.43 19.82 10 19.955v.215c4.429.142 6.45.25 8.071 1.821 1.572 1.622 1.686 3.643 1.822 8.072h.214c.143-4.43.25-6.45 1.822-8.072C23.55 20.42 25.57 20.305 30 20.17" fill="#C9CED5" fill-opacity=".16"/></svg>
